packages/components/Atoms/Icon/assets/img/rpl_icon_link.svg

<svg width="12" height="10" viewBox="0 0 12 10" overflow="visible" xmlns="http://www.w3.org/2000/svg">
  <path fill-rule="evenodd" clip-rule="evenodd" d="M6 8H2V2H6C6.553 2 7 1.553 7 1C7 0.447 6.553 0 6 0H1C0.447 0 0 0.447 0 1V9C0 9.553 0.447 10 1 10H6C6.553 10 7 9.553 7 9C7 8.447 6.553 8 6 8Z"
    fill="inherit" />
  <path fill-rule="evenodd" clip-rule="evenodd" d="M9.17188 2.2246C8.74288 1.8746 8.11388 1.9416 7.76588 2.3696C7.41688 2.7976 7.48188 3.4276 7.90988 3.7756L8.18688 3.9996H3.99988C3.44688 3.9996 2.99988 4.4476 2.99988 4.9996C2.99988 5.5526 3.44688 5.9996 3.99988 5.9996H8.18688L7.90988 6.2246C7.48188 6.5726 7.41688 7.2026 7.76588 7.6306C7.96288 7.8736 8.25088 7.9996 8.54188 7.9996C8.76388 7.9996 8.98588 7.9266 9.17188 7.7756L11.6309 5.7756C11.8639 5.5856 11.9999 5.3006 11.9999 4.9996C11.9999 4.6996 11.8639 4.4136 11.6309 4.2246L9.17188 2.2246Z"
    fill="inherit" />
</svg>

<svg width="12" height="10" overflow="visible" xmlns="http://www.w3.org/2000/svg"><path fill-rule="evenodd" clip-rule="evenodd" d="M6 8H2V2h4a1 1 0 100-2H1a1 1 0 00-1 1v8a1 1 0 001 1h5a1 1 0 100-2z" fill="inherit"/><path fill-rule="evenodd" clip-rule="evenodd" d="M9.172 2.225A.999.999 0 107.91 3.776L8.187 4H4a1 1 0 100 2h4.187l-.277.225a.999.999 0 101.262 1.55l2.459-2a1.002 1.002 0 000-1.55l-2.46-2z" fill="inherit"/></svg>
